src/actions/22/align-horizontal-baseline.svg

<svg xmlns="http://www.w3.org/2000/svg" viewBox="0 0 22 22">
  <defs id="defs3051">
    <style type="text/css" id="current-color-scheme">
      .ColorScheme-Text {
        color:#363636;
      }
      </style>
  </defs>
 <path 
     style="fill:currentColor;fill-opacity:1;stroke:none" 
    d="M 7 3 L 7 17.460938 C 6.6712415 17.529726 6.3728903 17.602011 6 17.666016 L 6.2773438 19 C 6.5266714 18.957211 6.7620293 18.903544 7 18.851562 L 7 19 L 8 19 L 8 18.597656 C 12.814903 17.197093 15 13.8535 15 11 L 13.523438 11 C 13.523438 11.9235 13.056963 13.705978 12.257812 14.392578 C 11.442023 13.619478 10.457893 12.424384 10.220703 11.021484 L 9.03125 11 C 9.03125 12.8985 10.372349 14.470647 11.380859 15.435547 C 10.518645 16.311362 9.5034296 16.838845 8 17.240234 L 8 3 L 7 3 z M 12.136719 3 C 10.963981 3.0254798 10.062758 3.2175457 9.4082031 3.4980469 L 9.7773438 4.7597656 C 10.090981 4.6577067 11.277195 4.3007812 11.972656 4.3007812 L 12.068359 4.3007812 C 13.036552 4.3390012 13.105469 4.6695034 13.105469 5.4472656 L 13.105469 5.7539062 L 12.599609 5.8300781 C 10.25412 6.1488409 9 6.4165603 9 8.0996094 C 9 9.2726437 9.9135768 10 11.236328 10 C 12.149974 10 12.749647 9.6427103 13.363281 9.1582031 L 13.554688 9.8730469 L 15 9.8730469 L 15 5.1542969 C 15 3.7135153 13.93717 3 12.300781 3 L 12.136719 3 z M 13.105469 6.7480469 L 13.105469 8.3164062 C 12.600927 8.6351691 12.219009 8.8652344 11.564453 8.8652344 C 10.978085 8.8652344 10.691406 8.5216165 10.691406 8.0371094 C 10.691406 7.1190825 11.54959 6.9644694 12.599609 6.8242188 L 13.105469 6.7480469 z "
	 class="ColorScheme-Text"
     />
</svg>

<svg xmlns="http://www.w3.org/2000/svg" viewBox="0 0 22 22">
    <path d="M7 3v14.46c-.329.07-.627.142-1 .206L6.277 19c.25-.043.485-.096.723-.148V19h1v-.402c4.815-1.4 7-4.744 7-7.598h-1.477c0 .924-.466 2.706-1.265 3.393-.816-.774-1.8-1.969-2.037-3.372L9.03 11c0 1.899 1.341 3.47 2.35 4.436-.862.875-1.878 1.403-3.381 1.804V3H7zm5.137 0c-1.173.025-2.074.218-2.729.498l.37 1.262c.313-.102 1.5-.46 2.195-.46h.095c.969.039 1.037.37 1.037 1.147v.307l-.505.076C10.254 6.15 9 6.417 9 8.1c0 1.173.914 1.9 2.236 1.9.914 0 1.514-.357 2.127-.842l.192.715H15V5.154C15 3.714 13.937 3 12.3 3h-.163zm.968 3.748v1.568c-.504.32-.886.55-1.54.55-.587 0-.874-.344-.874-.829 0-.918.859-1.073 1.909-1.213l.505-.076z" style="fill:currentColor;fill-opacity:1;stroke:none;color:#050505;opacity:.7"/>
</svg>
